libs/icons/src/svg/arrow-right.svg

<svg width="16" height="16" viewBox="0 0 16 16" fill="none" xmlns="http://www.w3.org/2000/svg">
<path d="M10.475 13.125L15.1417 8.45832C15.2083 8.39165 15.275 8.32499 15.275 8.25832C15.3417 8.05832 15.3417 7.92499 15.275 7.72499C15.275 7.65832 15.2083 7.59165 15.1417 7.52499L10.475 2.85832C10.2083 2.59165 9.80832 2.59165 9.54165 2.85832C9.27499 3.12499 9.27499 3.52499 9.54165 3.79165L13.075 7.32499L1.34165 7.32499C0.941654 7.32499 0.674988 7.59165 0.674988 7.99165C0.674988 8.39165 0.941654 8.65832 1.34165 8.65832L13.075 8.65832L9.54165 12.1917C9.40832 12.325 9.34165 12.4583 9.34165 12.6583C9.34165 12.8583 9.40832 12.9917 9.54165 13.125C9.80832 13.3917 10.2083 13.3917 10.475 13.125Z" fill="#202327"/>
</svg>

<svg xmlns="http://www.w3.org/2000/svg" viewBox="0 0 16 16" class="sageicon"><path d="m10.475 13.125 4.667-4.667c.066-.066.133-.133.133-.2a.736.736 0 0 0 0-.533c0-.067-.067-.133-.133-.2l-4.667-4.667a.644.644 0 0 0-.933 0 .644.644 0 0 0 0 .934l3.533 3.533H1.342c-.4 0-.667.267-.667.667s.267.666.667.666h11.733l-3.533 3.534a.605.605 0 0 0-.2.466c0 .2.066.334.2.467a.644.644 0 0 0 .933 0Z"/></svg>
